X:1303
T:Mrs Stewart's Strathspey
P:John Roy Stewart
C:MacGlashan, c. 1800
R:Strathspey (8x48) ABABAB
B:RSCDS 13-3
Z:Anselm Lingnau <anselm@strathspey.org>
M:4/4
L:1/8
K:Dm
f|"C"c>B A>G "F"F<G A2|"C"c>G "F"A>F "C"c>G "F"A<f|\
  "C"c>B "A7"A>G "Dm"F>G A<F|D<d "Am"[dE]>c "Dm"[d2F2][dF] f|
  "C"c>B A>G "F"F<G A2|"C"c>G "F"A>F "C"c>G "F"A<f|\
  "C"c>B "A7"A>G "Dm"F>G A<F|D<d "Am"[dE]>c "Dm"[d2F2][dF]||
f|"F"c>d f>g a<f g>a|"Bb"f>d d/c/B/A/ "F/A"f<c c>f|\
  c>d f>g "Dm"a<f g>a|"Am"c>a g>f "Dm"d3 f|
  "F"c>d f>g a>f g>a|"F/A"f>c "Bb"d/c/B/A/ "F/A"f>c cf/g/|\
  "F"a>f "Gm"g>d "F/A"f>c "Bb"d<f|"Dm/A"A<d "Am"[dE]>c "Dm"[d2F2][dF]|]
